X: 3
T: Custy's
R: jig
M: 6/8
L: 1/8
K: Ador
cde AGE|GAB A2 d|eag ecd|eAB AGE|
cde AGE|~G3 Gcd|eaa ged|cAG A3 :|
|:a2a ged|edg edc|AcA GAc|dec deg|
aeg dec|AcA GEE|cde ged|cAG A3 :|


Tune 1204	Setting 29759

